!!!!SEGMENT: pl-sa--l-1636--079_anonim--fuga.krn
!!!id: 17xx:786
!!!COM: Anonim
!!!COM-rism: pe30004985
!!!CDT:
!!!CNT:
!!!OTL: Fuga
!!!PDT:
!!!SMS-siglum: PL-SA
!!!SMS-shelfmark: L 1636
!!!NIFC-rismID: 1001076933
!!!URL-scan: http://repozytorium.nifc.pl/skany/pl-sa-nut--l1636
!!!ONB-nifc: 25r-26v, skan 0028 (s.8)-0030 (s. 3)
!!!SMS-variant:
!!!SMS-altvar:
**kern	**kern
*part2	*part1
*staff2	*staff1
*clefC4	*clefC1
*k[b-]	*k[b-]
*F:	*F:
*M2/2	*M2/2
*met(c|)	*met(c|)
=1	=1
!	!LO:TX:b:t=Fuga
!j	!LO:SIC:o:s:=:v:wszystkie caudy z prawej
1r	4g/
.	4dd\
.	8b-\L
.	16cc\L
.	16dd\JJ
.	8b-\L
.	8g\J
=2	=2
2r	16cc\LL
.	16dd\
.	16cc\
.	16b-\JJ
.	16a\LL
.	16dd\
.	16cc\
.	16dd\JJ
4r	8b-\L
.	8g\J
4g\	8dd\L
.	8b-\J
=3	=3
*	*2\right
8e-X\L	2b-\
16f\L	.
16g\JJ	.
8e-\L	.
8c\J	.
16f\LL	4a\
16g\	.
16f\	.
16e-X\JJ	.
16d\LL	4b-\
16g\	.
16f\	.
16g\JJ	.
=4	=4
*	*^
!LO:TX:a:t=P:problem:♮above	!	!
8en\L	4cc/	4a\
!LO:TX:a:t=P:problem:♯above	!	!
8f#X\J	.	.
!	!	!LO:N:vis=4
4.g\	4b-/	2b-\
.	2a/	.
!LO:TX:a:t=P:problem:♯above	!	!
16f#X\LL	.	.
16e\JJ	.	.
4d\	.	4f#X\
*	*v	*v
!!LO:PB:g=original
=5	=5
*^	*
2d/	4B-\	16b-\LL
.	.	16dd\
.	.	16cc\
.	.	16dd\JJ
.	4G\	16g\LL
.	.	16b-\
.	.	16a\
.	.	16g\JJ
2A/	4F\	16a\LL
.	.	16cc\
.	.	16b-\
.	.	16cc\JJ
.	4D\	16f\LL
.	.	16a\
.	.	16g\
.	.	16f\JJ
=6	=6	=6
2G/	4E-X\	16g\LL
.	.	16b-\
.	.	16a\
.	.	16b-\JJ
.	4C\	16e/LL
.	.	16g/
!	!	!LO:TX:a:t=P:problem:♯below
.	.	16f#X/
.	.	16e/JJ
4A/ 4F#X/	4D\	16f#X/LL
.	.	16d/
.	.	16e/
.	.	16f#/JJ
4d/	4D\	16g\LL
.	.	16a\
.	.	16b-\
.	.	16cc\JJ
*v	*v	*
=7	=7
*	*^
*	*	*^
16F#X\LL	2dd/	4f#X\	4a/
16D\	.	.	.
16E\	.	.	.
16F#X\JJ	.	.	.
16G\LL	.	4g\	4b-/
16A\	.	.	.
16B-\	.	.	.
16c\JJ	.	.	.
*	*v	*v	*v
4d\	16f#X/LL
.	16g/
.	16a/
.	16f#/JJ
16B-\LL	4dd\
16c\	.
16d\	.
16B-\JJ	.
=8	=8
4c\	16e/LL
!	!LO:TX:a:t=P:problem:♯below
.	16f#X/
.	16g/
.	16e/JJ
!!LO:LB:g=original
16A\LL	4a\
16B-\	.
16c\	.
16A\JJ	.
4.B-\	8d/L
.	16e/L
!	!LO:TX:a:t=P:problem:♯below
.	16f#X/JJ
.	[4g/
16A\LL	.
16G\JJ	.
=9	=9
2A/	8g/L]
.	16f#X/L
.	16e/JJ
.	4f#X/
4r	16g\LL
.	16b-\
.	16a\
.	16b-\JJ
4G/	16g\LL
.	16dd\
.	16cc\
.	16dd\JJ
*clefF4	*
=10	=10
*	*^
8E-X\L	2ee-X/ 2cc/ 2g/	2ryy
16F\L	.	.
16G\JJ	.	.
8E-\L	.	.
8C\J	.	.
16E-X\LL	4ee-/ 4cc/ 4g/	4ryy
16G\	.	.
16F\	.	.
16E-\JJ	.	.
16D\LL	4dd/	4b-\
16F\	.	.
16E-X\	.	.
16D\JJ	.	.
=11	=11	=11
*	*	*^
!	!LO:SIC:n=1:s=2ee-	!	!
16E-X\LL	2ee/	4g\	4b-/
16F\	.	.	.
16G\	.	.	.
16E-\JJ	.	.	.
16C\LL	.	4a\	4cc/
16D\	.	.	.
16E-X\	.	.	.
16C\JJ	.	.	.
16D\LL	4dd/ 4a/	4f\	2ryy
16E-\	.	.	.
16F\	.	.	.
16D\JJ	.	.	.
!!LO:LB:g=original
16BB-/LL	4dd/ 4b-/	4g\	.
16C/	.	.	.
16D/	.	.	.
16BB-/JJ	.	.	.
*	*v	*v	*v
=12	=12
*2\right	*
*^	*
4E-X/	2C\	16g\LL
.	.	16a\
.	.	16b-\
.	.	16g\JJ
4En/	.	16cc\LL
.	.	16dd\
.	.	16ee\
.	.	16cc\JJ
2A/	4F\	16a\LL
.	.	16b-\
.	.	16cc\
.	.	16a\JJ
.	4D\	16dd\LL
.	.	16ee\
.	.	16ff\
.	.	16dd\JJ
=13	=13	=13
2G/	4E-X\	16b-\LL
.	.	16cc\
.	.	16dd\
.	.	16b-\JJ
.	4C\	16g\LL
.	.	16a\
.	.	16b-\
.	.	16g\JJ
4ryy	4A\	16f#X/LL
.	.	16d/
.	.	16e/
.	.	16f#/JJ
4d/	8B-\L	[4g/
.	16A\L	.
.	16G\JJ	.
=14	=14	=14
*	*	*^
2d/	4A\	8g/L]	2ryy
.	.	16f#X/L	.
.	.	16e/JJ	.
.	4D/	4f#X/	.
2ryy	8BB-/L	2dd/ 2b-/	4b-/ 4fn/
.	16C/L	.	.
.	16D/JJ	.	.
.	8BB-/L	.	4g/
.	8GG/J	.	.
*v	*v	*	*
!!LO:LB:g=original
=15	=15	=15
*	*	*^
16C/LL	2cc/	4e\	4g/
16D/	.	.	.
16C/	.	.	.
16BB-/JJ	.	.	.
16AA/LL	.	4f\	4a/
16D/	.	.	.
16C/	.	.	.
16D/JJ	.	.	.
16GG/LL	4ryy	4g\	4b-/
16AA/	.	.	.
16BB-/	.	.	.
16C/JJ	.	.	.
16D\LL	16f/LL	4d\	4ryy
16E\	16g/	.	.
16F\	16a/	.	.
16D\JJ	16f/JJ	.	.
*	*	*v	*v
=16	=16	=16
*^	*	*
!LO:SIC:s:=:v:4En	!	!	!
4G/	4E-X\	16g\LL	2ryy
.	.	16a\	.
.	.	16b-\	.
.	.	16cc\JJ	.
4F/	4D\	16dd\LL	.
.	.	16ee\	.
.	.	16ff\	.
.	.	16dd\JJ	.
16C\LL	2ryy	4ee/	4cc\
16D\	.	.	.
16E-\	.	.	.
16F\JJ	.	.	.
16G\LL	.	4dd/	4b-\
16A\	.	.	.
16B-\	.	.	.
16G\JJ	.	.	.
*	*	*v	*v
=17	=17	=17
4.c/	4A\	16cc\LL
.	.	16a\
.	.	16b-\
.	.	16cc\JJ
.	4F\	16dd\LL
.	.	16cc\
16d/LL	.	16b-\
16c/JJ	.	16a\JJ
4B-/	4G\	16b-\LL
.	.	16g\
.	.	16a\
.	.	16b-\JJ
4c/	4E\	16cc\LL
.	.	16b-\
.	.	16a\
.	.	16g\JJ
=18	=18	=18
!LO:SIC:n=1:s=2A lub c	!	!
2B-/	4F\	8a\L
.	.	16b-\L
.	.	16cc\JJ
.	8D\L	4dd\
.	16E\L	.
.	16F\JJ	.
!!LO:PB:g=original
2d/	8G\L	8b-\L
.	16A\L	16cc\L
.	16B-\JJ	16dd\JJ
.	4G\	8b-\L
.	.	8g\J
=19	=19	=19
4G/	4E\	16cc\LL
.	.	16dd\
.	.	16cc\
.	.	16b-\JJ
4A/	4F#X\	16a\LL
.	.	16dd\
.	.	16cc\
.	.	16dd\JJ
!LO:SIC:s:=:v:4G	!	!
2B-/	4Fn\	16b-\LL
.	.	16cc\
.	.	16dd\
.	.	16cc\JJ
.	4D\	16b-\LL
.	.	16a\
.	.	16g\
.	.	16f\JJ
=20	=20	=20
2G/	4E-X\	16g\LL
.	.	16cc\
.	.	16b-\
.	.	16cc\JJ
.	4C\	16e/LL
.	.	16g/
.	.	16f/
.	.	16e/JJ
4r	4D\	16f#X/LL
.	.	16a/
.	.	16g/
.	.	16f#/JJ
4G/	4E-\	16g\LL
.	.	16b-\
.	.	16a\
.	.	16g\JJ
*v	*v	*
=21	=21
*clefC4	*
*k[b-]	*
*	*^
4c\	16cc\LL	2ryy
.	16ee-X\	.
.	16dd\	.
.	16cc\JJ	.
4g\	16b-\LL	.
.	16a\	.
.	16g\	.
.	16fn\JJ	.
8e-X\L	2cc/	8g\L
16f\L	.	16a\L
16g\JJ	.	16b-\JJ
8e-\L	.	8g\L
8c\J	.	8a\J
!!LO:LB:g=original
=22	=22	=22
*^	*	*
16f\LL	2ryy	4cc/	4a\
16g\	.	.	.
16f\	.	.	.
16e-X\JJ	.	.	.
16d\LL	.	4dd/	4b-\
16g\	.	.	.
16f\	.	.	.
16g\JJ	.	.	.
4e-X/	4c\	16cc\LL	2ryy
.	.	16dd\	.
.	.	16ee-X\	.
.	.	16dd\JJ	.
4A/	4F\	16cc\LL	.
.	.	16b-\	.
.	.	16a\	.
.	.	16g\JJ	.
=23	=23	=23	=23
8A/L	4D\	16a\LL	4ryy
.	.	16dd\	.
8G/J	.	16cc\	.
.	.	16b-\JJ	.
4d\	4ryy	4a/	4f#X\
8B-\L	2ryy	2dd/ 2b-/	4fn\
16c\L	.	.	.
16d\JJ	.	.	.
8B-\L	.	.	4g\
8G\J	.	.	.
*v	*v	*	*
=24	=24	=24
16c\LL	4g/	16e\LL
16d\	.	16f\
16c\	.	16e\
16B-\JJ	.	16d\JJ
16A\LL	4a/	16c\LL
16d\	.	16f\
16c\	.	16e\
16d\JJ	.	16f\JJ
16B-\LL	16dd\LL	2ryy
16c\	16ee-X\	.
16B-\	16dd\	.
16A\JJ	16cc\JJ	.
16G\LL	16b-\LL	.
16c\	16ee-\	.
16B-\	16dd\	.
16c\JJ	16ee-\JJ	.
*	*v	*v
=25	=25
16A\LL	16cc\LL
16B-\	16dd\
16A\	16cc\
16G\JJ	16b-\JJ
16F\LL	16a\LL
16B-\	16dd\
16A\	16cc\
!LO:SIC:s:o:t:=:v:custos G	!
16B-\JJ	16dd\JJ
!!LO:LB:g=original
*clefF4	*
*k[b-]	*
4r	16b-\LL
.	16a\
.	16b-\
.	16cc\JJ
4G\	8dd\L
.	8b-\J
=26	=26
*	*^
8E-X\L	8g\L	4ryy
16F\L	16a\L	.
16G\JJ	16b-\JJ	.
8E-\L	4r	8g\L
8C\J	.	8a\J
16F\LL	4cc/	4a\
16G\	.	.
16F\	.	.
16E-\JJ	.	.
16D\LL	4b-/	4d/
16G\	.	.
16F\	.	.
16G\JJ	.	.
*	*v	*v
=27	=27
16E-X\LL	16g\LL
16F\	16a\
16G\	16b-\
16F\JJ	16a\JJ
16E-\LL	16g/LL
16D\	16f/
16C\	16e/
16BB-\JJ	16d/JJ
16C\LL	16e/LL
16D\	16f/
16E-\	16g/
16D\JJ	16f/JJ
16C/LL	16e/LL
16BB-/	16d/
16AA/	16c/
16GG/JJ	16B-/JJ
=28	=28
16F\LL	16a\LL
16G\	16b-\
16A\	16cc\
16G\JJ	16b-\JJ
16F\LL	16a/LL
16E\	16g/
16D\	16f/
16C\JJ	16e/JJ
16D\LL	16f\LL
16E\	16g\
16F\	16a\
16E\JJ	16g\JJ
16D/LL	16f/LL
16C/	16e/
16BB-/	16d/
16AA/JJ	16c/JJ
!!LO:LB:g=original
=29	=29
*	*^
2GG/	16b-/LL	16g\LL
.	16cc/	16a\
.	16dd/	16b-\
.	16cc/JJ	16a\JJ
.	16b-/LL	16g\LL
.	16a/	16f\
.	16g/	16e\
.	16f/JJ	16d\JJ
16C/LL	4g/	4e\
16D/	.	.
16C/	.	.
16BB-/JJ	.	.
4AA/	16cc/LL	16a\LL
.	16dd/	16b-\
.	16cc/	16a\
.	16b-/JJ	16g\JJ
=30	=30	=30
16D/LL	4a/	4f\
16E-X/	.	.
16D/	.	.
16C/JJ	.	.
4BB-/	16dd/LL	16b-\LL
.	16ee-X/	16cc\
.	16dd/	16b-\
.	16cc/JJ	16a\JJ
16E-\LL	4b-/	4g\
16F\	.	.
16E-\	.	.
16D\JJ	.	.
4C/	16cc/LL	16a\LL
.	16dd/	16b-\
.	16cc/	16a\
.	16b-/JJ	16g\JJ
=31	=31	=31
8D/L	8a/L	8f#X\L
16BB-/L	8b-/J	8g\J
16C/JJ	.	.
4D\	4a/	8g\L
.	.	8f#X\J
8BB-/L	2b-/ 2g/	4.d\
16C/L	.	.
16D/JJ	.	.
8BB-/L	.	.
8GG/J	.	8e\
!LO:SIC:s:o:t:=:v:custos C	!LO:SIC:s:o:t:=:v:custos g, e	!
!!LO:PB:g=original
=32	=32	=32
*^	*	*
16C/LL	2ryy	4g/	4e\
16D/	.	.	.
16C/	.	.	.
16BB-/JJ	.	.	.
16AA/LL	.	4a/	4f\
16D/	.	.	.
16C/	.	.	.
16D/JJ	.	.	.
4ryy	2BB-\	16b-\LL	2ryy
.	.	16cc\	.
.	.	16dd\	.
.	.	16cc\JJ	.
4G/	.	16b-\LL	.
.	.	16a\	.
.	.	16g\	.
.	.	16f\JJ	.
*	*	*v	*v
=33	=33	=33
2G/	4E-X\	16g\LL
.	.	16a\
.	.	16b-\
.	.	16a\JJ
.	4C\	16g/LL
.	.	16f/
.	.	16e/
.	.	16d/JJ
!LO:SIC:s:=:v:=4A	!	!
4G/	[2D\	16d/LL
.	.	16e/
.	.	16f/
.	.	16d/JJ
4B-/	.	16g\LL
.	.	16a\
.	.	16b-\
.	.	16g\JJ
=34	=34	=34
4F#X/	1D\_	16a\LL
.	.	16b-\
.	.	16cc\
.	.	16a\JJ
4G/	.	16b-\LL
.	.	16cc\
.	.	16dd\
.	.	16b-\JJ
4A/	.	16cc\LL
.	.	16dd\
!	!	!LO:SIC:s:=:v:=16ee-
.	.	16ee\
.	.	16cc\JJ
4F#X/	.	16a\LL
.	.	16b-\
.	.	16cc\
.	.	16a\JJ
=35	=35	=35
4G/	1D\]	16b-\LL
.	.	16cc\
.	.	16dd\
.	.	16b-\JJ
!LO:LB:g=original	!	!LO:LB:g=original
4B-/	.	16g\LL
.	.	16a\
.	.	16b-\
.	.	16g\JJ
4F#X/	.	16a\LL
.	.	16b-\
.	.	16cc\
.	.	16a\JJ
4A/	.	16f#X\LL
.	.	16g\
.	.	16a\
.	.	16f#\JJ
=36	=36	=36
4B-/	1D\	16g\LL
.	.	16a\
.	.	16b-\
.	.	16cc\JJ
4A/	.	16dd\LL
.	.	16ee\
.	.	16ff\
.	.	16dd\JJ
8G/L	.	2ggT/
16A/L	.	.
16B-/JJ	.	.
8A/L	.	.
8G/J	.	.
=37	=37	=37
4A/	[1D\	16gg\LL
.	.	16b-\
.	.	16cc\
.	.	16dd\JJ
4G/	.	16ee-X\LL
.	.	16a\
.	.	16b-\
.	.	16cc\JJ
!	!	!LO:TX:a:t=P:problem:mixed beam
4F#X/	.	16dd\LL
.	.	16f#X/
.	.	16g/
.	.	16a/JJ
!	!	!LO:TX:a:t=P:problem:mixed beam
4G/	.	16b-\LL
.	.	16d/
.	.	16e/
.	.	16f#X/JJ
=38	=38	=38
4B-/	2D\_	16g\LL
.	.	16a\
.	.	16b-\
.	.	16cc\JJ
4F#X/	.	16dd\LL
.	.	16cc\
.	.	16b-\
.	.	16a\JJ
!!LO:LB:g=original
4G/	2D\_	16ee-X\LL
.	.	16dd\
.	.	16cc\
.	.	16b-\JJ
16B-/LL	.	16dd\LL
16F#/	.	16a\
16G/	.	16b-\
16A/JJ	.	16cc\JJ
=39	=39	=39
8.B-T/L	1D\]	8.ddT\L
16A/Jk	.	16cc\Jk
16B-/LL	.	16dd\LL
16A/	.	16cc\
16G/	.	16b-\
16F/JJ	.	16a\JJ
!	!	!LO:TX:a:t=P:problem:mixed beam
16d/LL	.	16b-\LL
16A/	.	16f#X/
16B-/	.	16g/
16c/JJ	.	16a/JJ
16d/LL	.	16b-\LL
16c/	.	16a\
16B-/	.	16g\
16A/JJ	.	16f#\JJ
=40	=40	=40
*	*	*^
8G/L	1ryy	2b-/	2g\
16A/L	.	.	.
16B-/JJ	.	.	.
16c/LL	.	.	.
16B-/	.	.	.
16A/	.	.	.
16G/JJ	.	.	.
2A\	.	8b-\L	2ryy
.	.	16cc\L	.
.	.	16b-\JJ	.
.	.	8a\L	.
.	.	8g\J	.
=41	=41	=41	=41
2A/	2D\	2a/	8g\L
!	!	!LO:SIC:s:=:v:=16f#	!
.	.	.	16f\L
.	.	.	16e\JJ
.	.	.	8d\L
.	.	.	8c\J
*	*	*v	*v
!LO:SIC:n=3:s=2Bn	!	!
2G/ 2D/ 2BB-/ 2GG/	2ryy	2g/ 2d/ 2Bn/
*v	*v	*
==	==
*-	*-
!!!system-decoration: s1,s2
!!!EED: Leszek Kubiak
!!!EST: 2020-12-09
!!!ENC: Andrzej Borzym
!!!END: 2020-06-18
